app/img/white-btn.svg

<svg width="64" height="48" viewBox="0 0 64 48" fill="none" xmlns="http://www.w3.org/2000/svg">
<rect x="64" width="48" height="64" transform="rotate(90 64 0)" fill="white"/>
<path d="M32.0066 29.5335C31.7133 29.5335 31.4466 29.4268 31.2333 29.2135L24.5666 22.2801C24.1666 21.8535 24.1666 21.1868 24.5933 20.7601C25.02 20.3601 25.6867 20.3601 26.1133 20.7868L32.0066 26.9201L37.9 20.7868C38.3 20.3601 38.9933 20.3601 39.42 20.7601C39.8467 21.1601 39.8466 21.8535 39.4466 22.2801L32.78 29.2135C32.5667 29.4268 32.3 29.5335 32.0066 29.5335Z" fill="#FF5722"/>
</svg>

<svg width="64" height="48" fill="none" xmlns="http://www.w3.org/2000/svg"><path fill="#fff" d="M64 0v48H0V0z"/><path d="M32.007 29.534a1.07 1.07 0 01-.774-.32l-6.666-6.934c-.4-.427-.4-1.093.026-1.52.427-.4 1.094-.4 1.52.027l5.894 6.133 5.893-6.133c.4-.427 1.093-.427 1.52-.027.427.4.427 1.093.027 1.52l-6.667 6.933c-.213.214-.48.32-.773.32z" fill="#FF5722"/></svg>
